X:1
T:We Bless Thy Holy Name
T:We Bless Thy Holy Name
T:Claude Hinton Bottoms
T:Mrs. J. M. Hunter, 1904
T:Public Domain Courtesy of the Cyber Hymnal™
C:Claude Hinton Bottoms
Z:Public Domain
Z:Courtesy of the Cyber Hymnal™
%%score ( 1 2 ) ( 3 4 )
L:1/8
Q:1/4=105
M:3/4
K:D
V:1 treble 
V:2 treble 
V:3 bass 
V:4 bass 
V:1
 [FA]2 [DF]2 [Fd]2 | [Gd]3 [Gc] [Gc]2 | [Gc]2 [EG]2 [Gc]2 | [FB]3 [FA] [FA]2 | %4
w: 1.~We bless Thy|ho- ly name,|Thou who canst|save from shame,|
w: 2.~Thou art our|life and light,|Dis- pell- ing|all our night,|
w: 3.~Ac- cept our|grate- ful praise,|Guide us in|wis- dom’s ways,|
w: 4.~When earth- ly|tasks are o’er,|On Ca- naan’s|shin- ing shore|
 ([DF][FB]) [EA]2 [D^G]2 | [CA]6 | D2 F2 A2 | [Fd]3 [Ac] [GB]2 | E2 G2 B2 | [^Ge]3 [Bd] [Ac]2 | %10
w: Thee * we a-|dore;|Let all the|peo- ple sing;|Loud let Thy|prais- es ring,|
w: With * mer- cy|free;|We bow be-|fore Thy throne,|Thy sov- ereign-|ty we own;|
w: Al- * might- y|Friend;|Our zeal and|strength re- new,|Help us our|work to do,|
w: How * sweet ’twill|be,|’Mid scenes of|pure de- light,|Where sin can|ne- ver blight,|
 [Ad]2 [Gd]2 [Fd]2 | [Ge]3 [Gd] [GB]2 | (Ad) [Ge]2 [Ec]2 | [Fd]6 |] %14
w: Thou art our|God and king|For * ev- er-|more!|
w: Since Thou art|God a- lone,|We * come to|Thee.|
w: With lov- ing|hearts and true,|Till * time shall|end.|
w: To share Thy|glo- ry bright,|E- * ter- nal-|ly!|
V:2
 x6 | x6 | x6 | x6 | x6 | x6 | D2 F2 A2 | x6 | E2 G2 B2 | x6 | x6 | x6 | F2 x4 | x6 |] %14
V:3
 [D,D]2 [D,A,]2 [D,A,]2 | [E,A,]3 [E,A,] [E,A,]2 | [A,,A,]2 [A,,C]2 [A,,E]2 | [D,D]3 [D,D] [D,D]2 | %4
 (A,D) [E,C]2 [E,B,]2 | [A,,A,]6 | D,2 F,2 A,2 | [D,A,]3 [F,D] [G,D]2 | E,2 G,2 B,2 | %9
 [E,B,]3 [^G,E] E2 | [F,D]2 [E,A,]2 [D,=C]2 | [G,B,]3 [G,B,] [G,D]2 | [A,D]2 [A,,C]2 [A,,A,]2 | %13
 [D,A,]6 |] %14
V:4
 x6 | x6 | x6 | x6 | D,2 x4 | x6 | D,2 F,2 A,2 | x6 | E,2 G,2 B,2 | x4 (A,=G,) | x6 | x6 | x6 | %13
 x6 |] %14

